packages/dnb-ui-lib/assets/icons/document_pdf.svg

<svg width="16" height="16" viewBox="0 0 16 16" fill="none" xmlns="http://www.w3.org/2000/svg">
<path d="M10.7181 4.98526C10.9861 5.30109 11.4594 5.33986 11.7753 5.07186C12.0911 4.80385 12.1299 4.33057 11.8619 4.01474L10.7181 4.98526ZM4 15.5927C4.41421 15.5927 4.75 15.2569 4.75 14.8427C4.75 14.4285 4.41421 14.0927 4 14.0927V15.5927ZM2 1.00001L2 1.75001L2 1.00001ZM7.85706 1L7.85706 1.75L7.85706 1ZM8.61953 1.35298L8.04768 1.83825L8.61953 1.35298ZM1.75 13.8427V2.00001H0.25V13.8427H1.75ZM2 1.75001L7.85706 1.75L7.85705 0.250001L2 0.250008L2 1.75001ZM8.04768 1.83825L10.7181 4.98526L11.8619 4.01474L9.19139 0.867723L8.04768 1.83825ZM2 15.5927H4V14.0927H2V15.5927ZM1.75 2.00001C1.75 1.86194 1.86193 1.75001 2 1.75001L2 0.250008C1.0335 0.250009 0.25 1.03351 0.25 2.00001H1.75ZM0.25 13.8427C0.25 14.8092 1.0335 15.5927 2 15.5927V14.0927C1.86193 14.0927 1.75 13.9807 1.75 13.8427H0.25ZM7.85706 1.75C7.93047 1.75 8.00017 1.78227 8.04768 1.83825L9.19139 0.867723C8.85889 0.475884 8.37096 0.25 7.85705 0.250001L7.85706 1.75Z" fill="black"/>
<path d="M6.11 8H4.25V12.6667H5.25V10.8667H6.11C7.11667 10.8667 7.70333 10.34 7.70333 9.43333C7.70333 8.52667 7.11667 8 6.11 8ZM5.95 10.0667H5.25V8.8H5.95C6.45667 8.8 6.69 9 6.69 9.43333C6.69 9.86667 6.45667 10.0667 5.95 10.0667Z" fill="black"/>
<path d="M9.73776 8H8.37109V12.6667H9.73776C11.1911 12.6667 12.1178 11.74 12.1178 10.3333C12.1178 8.92667 11.1911 8 9.73776 8ZM9.64443 11.8667H9.37109V8.8H9.64443C10.5578 8.8 11.0978 9.4 11.0978 10.3333C11.0978 11.2667 10.5578 11.8667 9.64443 11.8667Z" fill="black"/>
<path d="M15.9057 8.8V8H13.0391V12.6667H14.0391V10.74H15.6391V9.94H14.0391V8.8H15.9057Z" fill="black"/>
</svg>

<svg width="16" height="16" viewBox="0 0 16 16" fill="none" xmlns="http://www.w3.org/2000/svg"><path d="M10.718 4.985a.75.75 0 001.144-.97l-1.144.97zM4 15.593a.75.75 0 000-1.5v1.5zM2 1v.75V1zm5.857 0v.75V1zm.763.353l-.572.485.572-.485zm-6.87 12.49V2H.25v11.843h1.5zM2 1.75h5.857V.25H2v1.5zm6.048.088l2.67 3.147 1.144-.97L9.192.868l-1.144.97zM2 15.593h2v-1.5H2v1.5zM1.75 2A.25.25 0 012 1.75V.25A1.75 1.75 0 00.25 2h1.5zM.25 13.843c0 .966.784 1.75 1.75 1.75v-1.5a.25.25 0 01-.25-.25H.25zM7.857 1.75a.25.25 0 01.19.088l1.144-.97A1.75 1.75 0 007.857.25v1.5zM6.11 8H4.25v4.667h1v-1.8h.86c1.007 0 1.593-.527 1.593-1.434C7.703 8.527 7.117 8 6.11 8zm-.16 2.067h-.7V8.8h.7c.507 0 .74.2.74.633 0 .434-.233.634-.74.634zM9.738 8H8.37v4.667h1.367c1.453 0 2.38-.927 2.38-2.334C12.118 8.927 11.19 8 9.738 8zm-.094 3.867h-.273V8.8h.273c.914 0 1.454.6 1.454 1.533 0 .934-.54 1.534-1.454 1.534zM15.906 8.8V8h-2.867v4.667h1V10.74h1.6v-.8h-1.6V8.8h1.867z" fill="#000"/></svg>
